dist/img/sprites/dzen.svg

<svg width="28" height="28" viewBox="0 0 28 28" xmlns="http://www.w3.org/2000/svg">
<path d="M14.918 0C15.421 0.0713939 15.9263 0.129058 16.4266 0.21528C22.232 1.21754 26.8644 5.90153 27.7853 11.708C27.8804 12.3072 27.9221 12.9152 27.9896 13.5291C27.3811 13.5291 26.827 13.5445 26.274 13.5264C24.6594 13.4737 23.0459 13.3973 21.4527 13.0986C20.0391 12.8339 18.6986 12.3896 17.553 11.4807C16.2399 10.4389 15.4941 9.04725 15.0794 7.45242C14.6873 5.94162 14.5594 4.39622 14.488 2.84587C14.444 1.89853 14.444 0.94899 14.4248 0C14.589 0 14.7538 0 14.918 0Z"/>
<path d="M13.5473 0C13.5237 1.07695 13.5242 2.15445 13.4704 3.22975C13.3951 4.73506 13.2458 6.23324 12.835 7.69242C12.2743 9.68321 11.16 11.2423 9.29494 12.2073C8.23721 12.7542 7.09381 13.0299 5.92569 13.2024C4.03321 13.4819 2.12534 13.5313 0.216378 13.5544C0.162558 13.555 0.108189 13.5467 0 13.5379C0.0461314 13.0371 0.0708447 12.539 0.141689 12.048C0.55193 9.20597 1.70686 6.70608 3.64438 4.58349C5.77577 2.24781 8.40526 0.792472 11.5169 0.221321C12.0255 0.12796 12.5412 0.0730414 13.0535 0C13.2178 0 13.3825 0 13.5467 0H13.5473Z"/>
<path d="M27.9469 14.408C27.7975 21.7791 21.6472 27.8097 14.4331 27.9349C14.4331 27.4368 14.4194 26.9381 14.4358 26.4406C14.4968 24.5975 14.5709 22.7556 14.9718 20.9454C15.3068 19.4313 15.9022 18.0496 17.0291 16.9408C18.1198 15.8677 19.4653 15.2965 20.931 14.9665C22.3073 14.6567 23.7083 14.5431 25.1131 14.4766C25.9154 14.4387 26.7189 14.4288 27.5218 14.408C27.6574 14.4047 27.7931 14.408 27.9474 14.408H27.9469Z"/>
<path d="M13.5511 27.9386C6.12121 27.7761 0.141149 21.5609 0.0351562 14.4243C0.542602 14.4243 1.05115 14.41 1.55804 14.4271C3.39177 14.488 5.22549 14.5643 7.02627 14.9636C8.54037 15.2992 9.92211 15.8939 11.0298 17.0225C12.1013 18.1143 12.6768 19.457 13.0003 20.925C13.4391 22.9152 13.505 24.9406 13.55 26.9677C13.5572 27.2851 13.5511 27.6031 13.5511 27.9386Z"/>
</svg>

<svg width="28" height="28" viewBox="0 0 28 28" xmlns="http://www.w3.org/2000/svg"><path d="M14.918 0c.503.071 1.008.13 1.509.215 5.805 1.003 10.437 5.687 11.358 11.493.095.6.137 1.207.205 1.821-.609 0-1.163.015-1.716-.003-1.615-.052-3.228-.129-4.821-.427-1.414-.265-2.754-.71-3.9-1.618-1.313-1.042-2.059-2.434-2.474-4.029-.392-1.51-.52-3.056-.591-4.606-.044-.947-.044-1.897-.063-2.846h.493zm-1.371 0c-.023 1.077-.023 2.154-.077 3.23-.075 1.505-.224 3.003-.635 4.462-.56 1.991-1.675 3.55-3.54 4.515-1.058.547-2.201.823-3.37.995-1.892.28-3.8.33-5.709.352-.053.001-.108-.007-.216-.016.046-.5.07-.999.142-1.49.41-2.842 1.565-5.342 3.502-7.465C5.776 2.248 8.405.793 11.517.221 12.025.128 12.54.073 13.054 0h.493zm14.4 14.408c-.15 7.371-6.3 13.402-13.514 13.527 0-.498-.014-.997.003-1.494.06-1.843.135-3.685.536-5.496.335-1.514.93-2.895 2.057-4.004 1.09-1.073 2.436-1.644 3.902-1.974 1.376-.31 2.777-.424 4.182-.49.802-.038 1.606-.048 2.409-.069.135-.003.271 0 .425 0zM13.551 27.939C6.121 27.776.141 21.56.035 14.424c.508 0 1.016-.014 1.523.003 1.834.061 3.667.137 5.468.537 1.514.335 2.896.93 4.004 2.059 1.071 1.091 1.647 2.434 1.97 3.902.44 1.99.505 4.016.55 6.043.007.317.001.635.001.97z"/></svg>
